X: 365
P: Longways for as many as will
M: 6/4
L: 1/4
K: G
d |\
f/g/ |\
afd d>ef | g2a b2a | g2a f>e d/^c/ | d2d d2c/B/ |\
c>dc B2c | A2G F2B | E>FG A>GF | G2G G2 |]

